X:1
C:Brahms
%%score { 1 | ( 2 3 ) }
L:1/4
Q:1/4=100
M:3/4
I:linebreak $
K:Eb
V:1 treble 
L:1/8
V:2 bass 
V:3 bass 
V:1
"^Moderato" (!1!C>D |:"Cm" E6 |"Fm" G>F D2) (C>D |"Cm" E6 |"Em" B>A D2) (!1!D>E |$"Bdim" F4) (A>G | %6
"Cm" E4) (!5!G>F |"Am7b5" !2!C3 D/C/ =B,C |"G" D2)"Cm" (!4!E2"C7" !1!=E2 |"Fm" F2 B3 A |$ %10
"Bb" D2)"Eb" (!5!G3 F |"Ab" C2"Cm" E2"D" D2 |1"G7""Cm" G4)"Fm6" !1!C>D :|2"Ab" C2"Cm" E2"G7" D2 || %14
"C" C4 !4!G2- ||$[K:C]"Fm" G_AFE D2 |"C" F2 E2 (G2- |"Fm" G_AFE D2 |"C" F2 E2) !4!g2 |$ %19
"F" gaf"Bm7b5"e d2- |"Em" d(!5!ged"Am7" c2- |"Dm7" c)((!5!fdc"Dm6" B2- |"E" B))!3!cBc B2- | %23
 B!1!A!2!^G!1!A B2- |$ B(cBe"^Am" c2- | c)(A^GA B2- | B)"^N.C."(!2!cBcde | fe_ed) !1!c>d ||$ %28
[K:Eb]"Cm" e6 |"Fm" g>f d2 (c>d |"Cm" e6 |"Fm" b>a d2) (d>e |$"Bdim" f4) (a>g |"Cm" e4) (g>f | %34
"Ab" c3 d/c/ =Bc |"G" d2)"Cm" (e2"C7" =e2 |$"Fm" f2 b3 a |"Bb" d2)"Eb" (g3 f | %38
"Ab" c2"Cm" e2"G7" d2 |"C" c4) z2 |] %40
V:2
 z |: z/ G,/ C G, | !13![F,A,]3 | z/ G,/ C G, | [F,A,]3 |$ z/ D,/ A, D, | z/ G,/ C G, | !2!A,2 A, | %8
 [G,=B,] [C,C] _B, | A, [F,A,]2 |$ B, [E,B,]2 | A, G, ^F, |1 [=F,=B,] [E,C] D, :|2 %13
 A, G, [G,,=F,] || [C,=E,]2 z ||$[K:C] [C,_A,]3 | [C,G,]3 | [C,_A,]3 | [C,G,]2 [E,B,C] |$ %19
 [F,A,C]2 [B,,F,A,] | [E,G,]2 [A,,G,] | [D,F,]2 [F,A,] | [E,^G,]3 | E,3 |$ [E,^G,]2 A, | E,3 | %26
 [E,^G,] z z | z3 ||$[K:Eb] z/ G,/ C G, | [F,A,]3 | z/ G,/ C G, | [F,A,]3 |$ z/ D,/ A, D, | %33
 z/ G,/ C G, | A,2 A, | [G,=B,] [C,C] _B, |$ A, [F,A,]2 | B, [E,B,]2 | A, G, [G,,F,] | %39
 !fermata![C,=E,]2 z |] %40
V:3
 x |: !5!C,3 | x3 | C,3 | x3 |$ =B,,3 | C,3 | x3 | x3 | x3 |$ x3 | x3 |1 x3 :|2 x3 || x3 ||$ %15
[K:C] x3 | x3 | x3 | x3 |$ x3 | x3 | x3 | x3 | x3 |$ x3 | x3 | x3 | x3 ||$[K:Eb] C,3 | x3 | C,3 | %31
 x3 |$ =B,,3 | C,3 | x3 | x3 |$ x3 | x3 | x3 | x3 |] %40

